!!!SOCIAL_FUNCTION:	songs of medicine men's dance
!!!PDT:	1956
!!!OTL: No_19_Corn_Dance_Song_(i).krn
!!!LANG: Non-Tone
!!!LING_GROUP: Muskogean
!!!REG: Florida
**kern
*staff1
=1-
=
*clefF4
*k[b-]
*M2/4
4c\
8c\L
16A\L
16A\JJ
=2
8c\L
8c\J
8c\
8r
=3
4c\
16c\LL
16G\J
8G\J
=4
8G\L
16F\L
16D\JJ
(4F\
=5||
*M3/4
16C/LK)
8C/
16C/Jk
8C/
8r
16C/LK
8.C/J
=6||
*M2/4
16G\LK
8.G\J
16G\LL
16F\J
8D\J
=7
16F\LK
8.F\J
4C/
=8
4C/
16C/LK
8.C/J
=9
8C/
8r
16C/LK
8.C/J
==:|!
*-
